!!!OTL: SO GEHT ES IN SCHNUETZELPUTZ HAEUSEL
!!!ARE: Europa, Mitteleuropa, Deutschland
!!!SCT: Z0122
!!!YEM: Copyright 1995, estate of Helmut Schaffrath.
**kern
*ICvox
*Ivox
*M6/8
*k[]
*C:
{8c
=1
8c
8B-
8A
8A
8G
8A
=2
4B-
8A
4G}
{8c
=3
8c
8B-
8A
8A
8G
8A
=4
4B-
8A
4G}
{8c
=5
8c
8A
8F
8d
8B-
8G
=6
4A
8G
4F}
{8G
=7
8G
8A
8B
8c
8d
8e
=8
8d
8e
8f
4e}
{8G
=9
8G
8A
8B
8c
8d
8e
=10
8d
8e
8f
4e}
{8e
=11
8e
8c
8A
8f
8d
8B
=12
4.A
4.B
=13
4.c
4c}
==
!!!AGN: Erzaehlung, lustige Romanze, Unsinns - Verse
!!!ONB: ESAC (Essen Associative Code) Database: ZUCCAL
!!!AMT: compound duple
!!!AIN: vox
!!!EED: Helmut Schaffrath
!!!EEV: 1.0
*-
